X: 1
T: Nigun #2  [F]
C: Shlomo Carlebach
M: C
L: 1/8
K: F
|:\
"F"FF2F "(C7)"EFGE | "F"FF2F "(C7)"EFGE |\
"F"FF2F "(C7)"EFGE | "F"F2F2 F2F2 ::\
"F"A4 F2C2 | "Bb"D6 z2 |\
"C7"E2E2 F2G2 |1 "F"C6 z2 :|2 "F"F6 z2 |]

%%sep 1 1 500
%%sep 1 1 500

